X:2229
T:Brudmarsch efter Klockarfaster
S:efter Vilhelm Hedlund, Enviken
A:Enviken, Dalarna
O:Sweden
M:4/4
L:1/8
Q:1/4=130
K:Dm
(vA,2|D2)(D^C) (DE)FG|A2=B2 c4|{cd}c2Ac =B2^GB|A2(AE) C2A,2|\
D2(D^C) (DE)FG|A2 d2 ^c4|{e}f2({g}fe) (^cd)ef|d2 d2 d2::
A2|f2f2 {g}f>e ((3d^cd)|e2e2 {f}e2(d^c)|(d>^c)de (f>e)fg|a2(eg) f2e2|\
f2f2 {g}f>e ((3d^cd)|e2e2 {f}e2(d^c)|(d>^c)de (f>g)ac|{^c}d2d2d2:|
T:Andrastämma
(vA,2|A,2)A,2 (A,^C)DE|F2G2 A4|A2E2 D2=B,D|C2(EC) [A,2E2][A,2E2]|\
F2(FE) (FG)AE|D2F2 [E4A4]|{A}d2({e}d^c) A2GD|[F2A2][F2A2][F2A2]::\
A2|d2d2 ({de}d>^c)({=B^c}(3BAB)|^c2c2 {d}c2(AE)|(F>E)FA (d>^c)de|
{fe}f2^ce d2c2|\
d2d2 ({de}d>^c)({=B^c}(3BAB)|^c2c2 {d}c2AE|(F>E)FA (d>e)fA|[F2A2][F2A2][
F2A2]:|


